images/payment/payment-2.svg

<svg width="150" height="80" viewBox="0 0 150 80" fill="none" xmlns="http://www.w3.org/2000/svg">
<rect x="0.873047" y="0.885742" width="149.063" height="78.9159" rx="23.2911" fill="url(#paint0_linear_1181_25392)"/>
<path d="M94.7582 32.9901C97.3188 32.9901 99.2976 33.6565 100.811 34.9894C102.324 36.3221 103.022 38.0992 103.022 40.3205V50.9827H99.7631V48.5395H99.6467C98.2501 50.5388 96.2713 51.5384 93.9434 51.5384C91.9646 51.5384 90.2187 50.9829 88.822 49.8724C87.5416 48.7617 86.7268 47.2069 86.7268 45.5409C86.7268 43.7638 87.4254 42.3198 88.822 41.2091C90.2187 40.0985 92.1974 39.6543 94.5253 39.6543C96.6204 39.6543 98.2501 39.9876 99.5303 40.7649V39.9876C99.5303 38.9508 99.1247 37.9143 98.3135 37.2388L98.1334 37.0998C97.2024 36.3223 96.0384 35.878 94.7582 35.878C92.7794 35.878 91.2664 36.6556 90.2187 38.2105L87.1925 36.433C89.0547 34.1006 91.499 32.9901 94.7582 32.9901ZM78.3465 25.4377C80.435 25.4377 82.4198 26.1312 84.0067 27.4245L84.2827 27.6588C85.9122 28.9917 86.7268 30.991 86.7268 33.1012C86.7268 35.2114 85.9122 37.0996 84.2827 38.5434C82.653 39.9874 80.6744 40.7647 78.3465 40.7647L72.7596 40.6536V50.9829H69.2676V25.4375L78.3465 25.4377ZM95.2236 42.3198C93.8269 42.3198 92.663 42.6529 91.7319 43.3194C90.8006 43.8747 90.3351 44.6521 90.3351 45.6516C90.3351 46.5403 90.8008 47.3176 91.499 47.762C92.3139 48.3173 93.245 48.6505 94.1762 48.6505C95.4797 48.6505 96.7834 48.1667 97.8031 47.2895L98.0172 47.0956C99.1811 46.096 99.7631 44.8743 99.7631 43.5414C98.7156 42.764 97.2024 42.3196 95.2237 42.3196L95.2236 42.3198ZM78.5794 28.5475H72.7596V37.4329H78.5794C79.8595 37.4329 81.1399 36.9887 81.9548 36.1002C83.8169 34.4342 83.8169 31.6576 82.0712 29.9914L81.9548 29.8803C81.0235 28.9919 79.8595 28.4365 78.5792 28.5476L78.5794 28.5475ZM121.878 33.5454L110.355 58.7575H106.863L111.17 49.9833L103.604 33.6565H107.329L112.799 46.2069H112.916L118.27 33.6565H121.878V33.5454Z" fill="#5F6368"/>
<path d="M58.7461 39.0137C58.7461 37.9955 58.6356 36.9772 58.5251 35.959H44.7168V41.7292H52.56C52.2286 43.5393 51.2344 45.2365 49.6879 46.2549V49.9885H54.438C57.1997 47.3863 58.7463 43.5393 58.7463 39.0139L58.7461 39.0137Z" fill="#4285F4"/>
<path d="M44.751 53.4965C49.0415 53.4965 52.617 52.1197 55.2391 49.8252L50.1143 46.0393C48.684 46.957 46.8963 47.5307 44.751 47.5307C40.6987 47.5307 37.1232 44.892 35.9313 41.2207H30.6875V45.1214C33.4286 50.2841 38.7919 53.4965 44.751 53.4965Z" fill="#34A853"/>
<path d="M35.9464 40.7193C35.224 38.833 35.224 36.7109 35.9464 34.7066V30.6982H30.6478C28.3596 35.0604 28.3596 40.2478 30.6478 44.7277L35.9464 40.7193Z" fill="#FBBC04"/>
<path d="M44.6319 27.8987C46.8963 27.8987 49.0415 28.7015 50.7102 30.1921L55.2391 25.8347C52.3786 23.3119 48.5649 21.8213 44.7509 21.9358C38.7918 21.9358 33.3096 25.1467 30.6875 30.3068L35.9315 34.2055C37.0041 30.536 40.5796 27.8987 44.6319 27.8987Z" fill="#EA4335"/>
<defs>
<linearGradient id="paint0_linear_1181_25392" x1="75.4047" y1="0.885742" x2="75.4047" y2="79.8016" gradientUnits="userSpaceOnUse">
<stop stop-color="white"/>
<stop offset="1" stop-color="#FFF5EF"/>
</linearGradient>
</defs>
</svg>

<svg width="150" height="80" fill="none" xmlns="http://www.w3.org/2000/svg"><rect x=".873" y=".886" width="149.063" height="78.916" rx="23.291" fill="url(#paint0_linear_1181_25392)"/><path d="M94.758 32.99c2.56 0 4.54.666 6.053 2 1.513 1.332 2.211 3.11 2.211 5.33v10.663h-3.259v-2.444h-.116c-1.397 2-3.376 3-5.704 3-1.978 0-3.724-.556-5.121-1.667-1.28-1.11-2.095-2.665-2.095-4.331 0-1.777.698-3.221 2.095-4.332 1.397-1.11 3.375-1.555 5.703-1.555 2.095 0 3.725.334 5.005 1.11v-.776c0-1.037-.405-2.074-1.216-2.75l-.18-.138a5.212 5.212 0 00-3.376-1.222c-1.979 0-3.492.778-4.54 2.333l-3.026-1.778c1.863-2.332 4.307-3.443 7.566-3.443zm-16.411-7.552c2.088 0 4.073.693 5.66 1.986l.276.235c1.63 1.333 2.444 3.332 2.444 5.442 0 2.11-.815 3.999-2.444 5.442-1.63 1.444-3.609 2.222-5.936 2.222l-5.587-.111v10.329h-3.492V25.438h9.079zM95.224 42.32c-1.397 0-2.561.333-3.492 1-.931.555-1.397 1.332-1.397 2.332 0 .888.466 1.666 1.164 2.11.815.555 1.746.889 2.677.889a5.604 5.604 0 003.627-1.362l.214-.193c1.164-1 1.746-2.222 1.746-3.555-1.047-.777-2.56-1.221-4.54-1.221zM78.579 28.547h-5.82v8.886h5.82c1.28 0 2.56-.444 3.376-1.333 1.862-1.666 1.862-4.442.116-6.109l-.116-.11c-.931-.89-2.096-1.445-3.376-1.333zm43.299 4.998l-11.523 25.212h-3.492l4.307-8.774-7.566-16.326h3.725l5.47 12.55h.117l5.354-12.55h3.608v-.112z" fill="#5F6368"/><path d="M58.746 39.014c0-1.019-.11-2.037-.22-3.055h-13.81v5.77h7.844c-.331 1.81-1.326 3.508-2.872 4.526v3.733h4.75c2.762-2.602 4.308-6.449 4.308-10.974z" fill="#4285F4"/><path d="M44.751 53.496c4.29 0 7.866-1.376 10.488-3.67l-5.125-3.787c-1.43.918-3.218 1.492-5.363 1.492-4.052 0-7.628-2.639-8.82-6.31h-5.243v3.9c2.74 5.163 8.104 8.375 14.063 8.375z" fill="#34A853"/><path d="M35.946 40.72c-.722-1.887-.722-4.01 0-6.013v-4.009h-5.298c-2.288 4.362-2.288 9.55 0 14.03l5.298-4.009z" fill="#FBBC04"/><path d="M44.632 27.899c2.264 0 4.41.802 6.078 2.293l4.53-4.357c-2.861-2.523-6.675-4.014-10.49-3.9-5.958 0-11.44 3.212-14.063 8.372l5.244 3.899c1.073-3.67 4.649-6.307 8.7-6.307z" fill="#EA4335"/><defs><linearGradient id="paint0_linear_1181_25392" x1="75.405" y1=".886" x2="75.405" y2="79.802" gradientUnits="userSpaceOnUse"><stop stop-color="#fff"/><stop offset="1" stop-color="#FFF5EF"/></linearGradient></defs></svg>
